!!!SOCIAL_FUNCTION:	oil potlatch songs
!!!PDT:	1939
!!!OTL: No_8_Song_of_a_Whale.krn
!!!LANG: Non-Tone
!!!LING_GROUP: Wakashan
!!!REG: Pacific Northwest
**kern
*staff1
=1-
*clefF4
*k[b-e-a-]
*M3/4
2r
8r
8F\
=2
4F\
4G\
4G\
=3!|:
2.G\
=4||
*M2/4
8F\
8r
4G\
=5||
*M3/4
2.G\
=6||
*M2/4
8F\L
8E-\J
4F\
=7
4F\
4r
=8
4F\
4G\
=9||
*M3/4
2.G\
=10
4.F\
8r
8G\L
8F\J
=11||
*M2/4
2F\
=12
8F\
8r
4F\
=13||
*M3/4
2F\
8G\L
8F\J
=14||
*M2/4
8E-\L
[8F\J
4F\]
=15
8G\L
8F\J
8E-\L
8F\J
=16
4.F\
8F\
=17
8F\L
16F\Jk
16r
8E-\L
8F\J
=18
2F\
=19||
*M3/4
4E-\
4r
8E-\L
8F\J
=20||
*M2/4
2E-\
=21
4F\
16D\LK
8.F\J
=22
8G\
8r
4G\
=23||
*M3/4
2.G\
=24
8F\L
8E-\J
8F\
8r
4G\
=25||
*M2/4
16An\LK
[8.G\J
4G\]
=26||
*M3/4
4F\
8E-\
8r
4F\
=27||
*M2/4
4F\
4r
=28
4F\
4G\
=29||
*M3/4
2.G\
=30
4.F\
8r
8G\L
8F\J
=31
4F\
8G\L
8F\J
4F\
=32
2F\
8G\L
8F\J
=33||
*M2/4
8E-\L
[8F\J
4F\]
=34
8G\L
16F\Jk
16r
4F\
=35
2F\
=36||
*M3/4
4E-\
4r
4F\
=37
2.F\
=38
2E-\
4E-\
=39
4E-\
4r
4E-\
=40
8E-\L
8F\J
4G\
4G\
==:|!
*-
